!!!!SEGMENT: pl-wtm--r-2027_smietanski-emil-wladyslaw--styrienne-originale.krn
!!!cenid: 18xx:2006
!!!COM: Śmietański, Emil Władysław
!!!COM-rismID: pe50041781
!!!CDT: 1845-1886
!!!CNT: Polish
!!!OTL: Styrienne originale
!!!PDT: 1867
!!!AGN: Secular
!!!YEC: Copyright 2022 Narodowy Instytut Fryderyka Chopina (https://polishscores.org)
!!!YEM: License CC-BY-4.0 (https://creativecommons.org/licenses/by/4.0)
!!!SMS-siglum: PL-Wtm
!!!SMS-shelfmark: R 2027
!!!SMS-shelfwork: W
!!!SMS-variant:
!!!SMS-altvar:
!!!NIFC-rismSourceID: 1001112878
!!!NIFC-rismChildID: 1001112878
!!!NIFC-islandoraID: pl-wtm:29526
!!!URL-pdf-islandora: https://repozytorium.nifc.pl/islandora/object/pl-wtm%3A29526/datastream/PDF/view
!!!URL-scan: https://polish.musicsources.pl/pl/lokalizacje/galeria/rekopisy/6519 @EN{Scan on Polish Music Sources Website} @PL{Skany w portalu Dziedzictwo Muzyki Polskiej w otwartym dostępie}
!!!IIIF:
!!!ONB-nifc:
!!!OMD: Alegretto.
!!!AIN: 1 forte
!!!key:
**kern	**kern	**dynam
*part1	*part1	*
*staff2	*staff1	*
*Iforte	*Iempty	*
*I"Fortepian	*	*
*I'pf	*	*
*clefF4	*clefG2	*
*k[b-]	*k[b-]	*
*F:	*F:	*
*M3/4	*M3/4	*
=1	=1	=1
!LO:N:xstem	!LO:TX:a:i:t=2de Styrienne originale	!
4FF/	4c/	p
4A 4F\	8d/L	.
.	8e/	.
4A 4C\	8f/	.
.	8g/J	.
=2	=2	=2
4A 4FF\	4a 4f/	.
4A 4F\	2a 2f/	.
4C\	.	.
=3	=3	=3
4A 4FF\	4a 4e/	.
4A 4F\	2a 2e/	.
4C\	.	.
=4	=4	=4
4A 4FF#X\	4a 4e-X/	.
4A 4E-X\	2a 2e-/	.
4C\	.	.
=5	=5	=5
4BB- 4BBB-/	4a 4d/	.
8G\L	8g/L	.
8fJ 8d\	8ffJ 8dd/	.
[4f [4d\	[4ff [4dd/	.
=6	=6	=6
4f] 4d\]	4ff] 4dd/]	.
4e 4c\	4ee 4cc/	.
4d 4B-\	4dd 4b-/	.
!!LO:LB:g=original
=7	=7	=7
4C 4CC/	16cc#XLL 16a/	.
.	16ddJJ 16b-/	.
.	8r	.
4c 4E\	8b-L 8e/	.
.	8B-/	.
4C\	8b- 8e/	.
.	8B-/J	.
=8	=8	=8
4FF\	8fL 8A/	.
.	8c 8F/	.
4A 4F\	8f 8A/	.
.	8gJ 8c/	.
4C\	4a 4f/	.
=9	=9	=9
4FF\	4c/	.
4A 4F\	8d/L	.
.	8e/	.
4A 4C\	8f/	.
.	8g/J	.
=10	=10	=10
4A 4FF\	4a 4f/	.
4A 4F\	2a 2f/	.
4C\	.	.
=11	=11	=11
4A 4FF\	4a 4e/	.
4A 4F\	2a 2e/	.
4C\	.	.
=12	=12	=12
4A 4FF#X\	4a 4d#X/	.
4A 4F#X\	2a 2d#/	.
4BBn\	.	.
=13	=13	=13
4E 4EE/	4a 4e/	.
8c#XL 8A\	8cc#XL 8a/	.
8aJ 8f#X\	8aaJ 8ff#X/	.
[4a [>4f#\	[4aa [4ff#/	.
!!LO:LB:g=original
=14	=14	=14
4a] 4f#X\]	4aa] 4ff#X/]	.
4g#X 4e\	4gg#X 4ee/	.
4f#X 4d\	4ff# 4dd/	.
=15	=15	=15
!	!LO:SIC:v:n=1:o=16ee#XLL 16cc#X/	!
4EE\	16een	.
.	16ffJJ 16dd/	.
.	8r	.
4d 4G#X\	8ddL 8f#X/	.
.	8g#X 8d/	.
4E\	8dd 8f#/	.
.	8g#J 8d/	.
=16	=16	=16
4AA/	4a 4c#X/	.
4A 4E\	4ryy	.
4r	4a/	.
=17||	=17||	=17||
4BBB-\	8aL 8d'/	.
!	!	!LO:DY:t=staccato e p. egualimente:dur=5qe
.	8g 8B-'/	p
4G\	8g 8B-'/	.
.	8a 8d'/	.
4D\	8b- 8g'/	.
.	8ddJ 8a'/	.
=18	=18	=18
4g 4B-\	8ddL 8b-'/	.
.	8gg 8b-'/	.
4r	8gg 8b-'/	.
.	8dd 8b-'/	.
4r	8b- 8g'/	.
.	8gJ 8d'/	.
=19	=19	=19
4CC\	8gL 8c/	.
.	8f 8A/	.
4F\	8f 8A/	.
.	8g 8c/	.
4C\	8a 8f/	.
.	8ccJ 8g/	.
!!LO:LB:g=original
=20	=20	=20
4f 4A\	8ccL 8a/	.
.	8ff 8a/	.
4r	8ff 8a/	.
.	8cc 8a/	.
4r	8a 8f/	.
.	8fJ 8c/	.
=21	=21	=21
4CC\	8eL 8c/	.
.	8eeJ 8cc/	.
*tremolo	*	*
8B-\L	8eeL 8cc/	.
8B-\J	8eJ 8c/	.
8E\L	8eL 8c/	.
8E\J	8ddJ 8bn/	.
*Xtremolo	*	*
=22	=22	=22
4CC\	8ddL 8b-/	.
.	8eJ 8c/	.
*tremolo	*	*
8B-\L	8eL 8c/	.
8B-\J	8dd-XJ 8b-X/	.
8E\L	8dd-L 8b-/	.
8E\J	8eJ 8c/	.
*Xtremolo	*	*
=23	=23	=23
4FF\	8fL 8c/	.
.	8dd-XJ 8b-/	.
4F\	8dd-L 8b-/	.
.	8fJ 8c/	.
4C\	8fL 8c/	.
.	8ccJ 8a/	.
=24	=24	=24
4A\	8fL 8c/	.
.	8ccJ 8a/	.
4r	8fL 8c/	.
.	8bnJ 8g#X/	.
4r	8fL 8c/	.
.	8ccJ 8a/	.
=25	=25	=25
4BBB-\	8aL 8d/	.
.	8g 8B-/	.
4G\	8g 8B-/	.
.	8a 8d/	.
4D\	8b- 8g/	.
.	8ddJ 8a/	.
!!LO:LB:g=original
=26	=26	=26
4g 4B-\	8ddL 8b-/	.
.	8bb- 8gg/	.
4r	8gg 8dd/	.
.	8dd 8b-/	.
4r	8b- 8g/	.
.	8gJ 8d/	.
=27	=27	=27
4CC\	8gL 8c/	.
.	8f 8A/	.
4F\	8f 8A/	.
.	8g 8c/	.
4C\	8a 8f/	.
.	8ccJ 8g/	.
=28	=28	=28
4g 4A\	8ccL 8a/	.
.	8aa 8ff/	.
4r	8ff 8cc/	.
.	8cc 8a/	.
4r	8a 8f/	.
.	8fJ 8c/	.
=29	=29	=29
4CC\	8eL 8c/	.
.	8eeJ 8cc/	.
4B-\	8eeL 8cc/	.
.	8eJ 8c/	.
4E\	8eL 8c/	.
.	8ddJ 8bn/	.
=30	=30	=30
4CC\	8ddL 8b-/	.
.	8eJ 8c/	.
4B-\	8eL 8c/	.
.	8dd-XJ 8b-/	.
4E\	8dd-L 8b-/	.
.	8eJ 8c/	.
=31	=31	=31
4CC\	8eL 8c/	.
.	8ccJ 8a/	.
!	!LO:TX:b:t=poco rit...:dur=5q:ext=c:problem=text with with extention lines	!
4r	8eL 8c/	.
.	8bnJ 8g#X/	.
4r	8eL 8c/	.
.	8ccJ 8a/	.
=32	=32	=32
4e\	8eL 8c/	.
.	8dd-XJ 8b-/	.
4r	8dd-L 8b-/	.
.	8eJ 8c/	.
4r	8eL 8c/	.
.	8ccJ 8b-/	.
!!LO:LB:g=original
=33||	=33||	=33||
!	!LO:TX:b:i:t=a tempo.	!
4FF\	4c/	.
4A 4F\	8d/L	.
.	8e/	.
4A 4C\	8f/	.
.	8g/J	.
=34	=34	=34
4A 4FF\	4a 4f/	.
4A 4F\	2a 2f/	.
4C\	.	p
=35	=35	=35
4A 4FF\	4a 4e/	.
4A 4F\	2a 2e/	.
4C\	.	.
=36	=36	=36
4A 4FF#X\	4a 4e-X/	.
4A 4E-X\	2a 2e-/	.
4C\	.	.
=37	=37	=37
4BB- 4BBB-/	4a 4d/	.
8G\L	8g/L	.
8fJ 8d\	8ffJ 8dd/	.
[4f [>4d\	[4ff [4dd/	.
=38	=38	=38
4f] 4d\]	4ff] 4dd/]	.
4e 4c\	4ee 4cc/	.
4d 4B-\	4dd 4b-/	.
=39	=39	=39
4CC/	16cc#XLL 16a/	.
.	16ddJJ 16b-/	.
.	8r	.
4c 4E\	8b-L 8e/	.
.	8B-/	.
4C\	8b- 8e/	.
.	8B-/J	.
!!LO:LB:g=original
=40	=40	=40
4FF\	8fL 8A/	.
.	8cJ 8F/	.
4A 4F\	8fL 8A/	.
.	8gJ 8c/	.
4C\	4a 4f/	.
=41	=41	=41
4A 4FF\	4c/	.
4A 4F\	8d/L	.
.	8e/	.
4A 4C\	8f/	.
.	8g/J	.
=42	=42	=42
4A 4FF\	4a 4f/	.
4A 4F\	2a 2f/	.
4A 4C\	.	.
=43	=43	=43
4A 4FF\	4a 4e/	.
4A 4F\	2a 2e/	.
4C\	.	.
=44	=44	=44
4A 4FF#X\	4a 4e-X/	.
4A 4E-X\	2a 2e-/	.
4C\	.	.
=45	=45	=45
4BB- 4BBB-/	4a 4d/	<
8G\L	8g/L	.
8aJ 8f\	8aaJ 8ff/	.
[4a [4f\	[4aa [4ff/	[[
=46	=46	=46
4a] 4f\]	4aa] 4ff/]	>
4g 4e\	4gg 4ee/	.
4f 4d\	4ff 4dd/	]]
!!LO:PB:g=original
=47	=47	=47
4CC/	16eeXLL 16cc#\	.
.	16ffJJ 16dd\	.
.	8r	.
4c 4E\	8ddL 8b-\	.
.	8e\	.
4C\	8b- 8d\	.
.	8eJ 8B-\	.
=48	=48	=48
4FF\	4f 4A\	.
4c 4F 4C\	4r	.
4r	4r	.
=49||	=49||	=49||
*k[]	*k[]	*
*C:	*C:	*
!	!	!LO:DY:rj
4GG 4CC\	4e 4c 4G/	f
!	!LO:TX:b:i:t=con eleganza.	!
4c 4E\	8ccL 8g/	.
.	8e 8c/	.
4E 4C\	8cc 8g/	.
.	8eJ 8c/	.
=50	=50	=50
4F 4FF\	8fL 8B/	.
.	8bJ 8g/	.
!	!LO:TX:a:i:t=ms	!
8ff> 8b>\	8ryy	.
!	!LO:TX:a:i:t=md	!
8ryy	8gg 8ff/	.
!	!LO:TX:a:i:t=ms	!
4gg> 4ff>\	4ryy	.
=51	=51	=51
8G\	8r	.
8r	8ggL 8ff 8b/	.
!	!LO:TX:b:i:t=ms	!
8aa-X>\L	8ryy	.
8ryy	8gg 8ff 8b/	.
8aa->\J	8ryy	.
8ryy	8ggJ 8ff 8b/	.
=52	=52	=52
8e\	8eeL 8cc/	.
8r	8eeeJ 8ccc/	.
!	!LO:TX:a:i:t=ms	!
8ccc> 8gg>\	8ryy	.
8ryy	8gg 8ee/	.
!	!LO:TX:a:i:t=ms	!
8ee> 8cc>\	8ryy	.
8ryy	8cc 8g/	.
!!LO:LB:g=original
=53	=53	=53
4CC/	8r	.
.	8eL 8c/	.
4c 4E\	8cc 8g/	.
.	8e 8c/	.
4G 4C\	8cc 8g/	.
.	8eJ 8c/	.
=54	=54	=54
!	!LO:TX:t=P:problem=skreślony takt [1]	!
4F 4GG\	8gL 8B/	.
.	8bJ 8g/	.
!	!LO:TX:a:i:t=ms	!
8ff> 8b>\	8ryy	.
8ryy	8gg 8ff/	.
!	!LO:TX:a:i:t=ms	!
4gg> 4ff>\	4ryy	.
=55	=55	=55
8G\	8r	.
8r	8ggL 8ff 8b/	.
!	!LO:TX:b:i:t=ms	!
8aa-X>\	8ryy	.
8ryy	8aanX 8ff 8b/	.
!	!LO:TX:b:i:t=ms	!
8bb-X>\	8ryy	.
8ryy	8bbnXJ 8ff 8b/	.
=56	=56	=56
4e 4c\	4ccc 4ee 4cc/	.
4r	4c/	.
4GG\	4r	.
=57!|:	=57!|:	=57!|:
4GG 4CC\	8r	.
.	8eL 8c/	.
4c 4E\	8cc 8g/	.
.	8e 8c/	.
4G 4C\	8cc 8g/	.
.	8eJ 8c/	.
!!LO:LB:g=original
=58	=58	=58
8F 8FF\	8fL 8B/	.
8r	8bJ 8g/	.
!	!LO:TX:b:i:t=ms	!
8ff> 8b>\	8ryy	.
8ryy	8gg 8ff/	.
!	!LO:TX:b:i:t=ms	!
4gg> 4ff>\	4ryy	.
=59	=59	=59
8G\	8r	.
8r	8ggL 8ff 8b/	.
!	!LO:TX:b:i:t=ms	!
8aa-X>\	8ryy	.
8ryy	8gg 8ff 8b/	.
!	!LO:TX:b:i:t=ms	!
8aa->\	8ryy	.
8ryy	8ggJ 8ff 8b/	.
=60	=60	=60
8e\	8eeL 8cc/	.
8r	8eeeJ 8ccc/	.
!	!LO:TX:b:i:t=ms	!
8ccc> 8gg>\	8ryy	.
8ryy	8gg 8ee/	.
!	!LO:TX:b:i:t=ms	!
8ee> 8cc>\	8ryy	.
8ryy	8cc 8g/	.
=61	=61	=61
4CC\	8r	.
.	8eL 8c/	.
4c 4E\	8cc 8g/	.
.	8e 8c/	.
4G 4C\	8cc 8g/	.
.	8eJ 8c/	.
=62	=62	=62
8F#X 8AA-X\	8f#XL 8c/	.
8r	8ccJ 8f#/	.
!	!LO:TX:b:i:t=ms	!
8cc> 8f>\	8ryy	.
8ryy	8aa-X 8ff#X/	.
!	!LO:TX:b:i:t=ms	!
4aa-y> 4ff#y>\	4ryy	.
=63	=63	=63
8G\	8r	.
8r	8gg 8ff 8b/	.
!	!LO:TX:b:i:t=ms	!
8eee> 8bb> 8aa-X>\	8ryy	.
8ryy	8gg 8ff 8b/	.
!	!LO:TX:b:i:t=ms	!
8eee> 8bb> 8aa->\	8ryy	.
8ryy	8gg 8ff 8b/	.
!!LO:LB:g=original
=64	=64	=64
*2\right	*	*
2.e 2.c\	2.ccc 2.ee 2.cc\	.
=65||	=65||	=65||
*	*Xtuplet	*
4BB 4EE\	12bbL 12gg#Xm\	p
.	12ccc\	.
.	12bb\J	.
4e 4G#X\	8gg#L 8ee\	.
.	8ee 8b\	.
4d#X 4A\	8ff#X 8b\	.
.	8bJ 8f#X\	.
=66	=66	=66
4E\	8eeL 8g#X\	.
.	8b 8f#X\	.
4e 4G#X\	8g# 8e\	.
.	8b 8f#\	.
4A 4BB\	8g# 8e\	.
.	8f#J 8B\	.
=67	=67	=67
4BB 4EE\	8eL 8G#X\	.
.	8B\J	.
*clefG2	*	*
4dd 4g#X\	4.b 4.e\	.
!LO:TX:a:i:t=rall.	!	!
4r	.	.
.	8B\	.
*clefF4	*	*
=68	=68	=68
!	!LO:TX:t=P:problem=mixed beam	!
4BB 4EE\	8eL 8G#X\	.
.	8BB</J	.
!LO:TX:b:i:t=md.	!	!
!LO:TX:a:i:t=ms.	!	!
4B 4E/	4EE</	.
4ryy	4ryy	.
!!LO:LB:g=original
=69	=69	=69
!	!LO:TX:b:i:t=a tempo.	!
4CC/	12ggnXL 12ee\	.
.	12aa\	.
.	12gg\J	.
4c 4E\	8eeL 8cc\	.
.	8cc 8g\	.
4B 4F\	8dd 8g\	.
.	8gJ 8d\	.
=70	=70	=70
4C\	8ccL 8e\	.
.	8g 8d\	.
4G 4E\	8e 8c\	.
.	8g 8d\	.
4F 4GG\	8e 8c\	.
.	8dJ 8G\	.
=71	=71	=71
4GG 4CC\	8c<L 8E</	.
.	8G</J	.
*clefG2	*	*
4cc 4e;\	4g 4c;\	.
*clefF4	*	*
!LO:N:vis=8	!	!
4GG\	4ryy	.
=72:|!	=72:|!	=72:|!
4CC/	8r	.
!	!	!LO:DY:rj
.	8eL 8c/	f
4c 4E\	8cc 8g/	.
.	8e 8c/	.
4G 4C\	8cc 8g/	.
.	8eJ 8c/	.
=73	=73	=73
8F 8FF\	8fL 8B/	.
8r	8bJ 8g/	.
8ff> 8b>\	8ryy	.
8ryy	8gg 8ff/	.
4gg> 4ff>\	4ryy	.
!!LO:LB:g=original
=74	=74	=74
8G\	8r	.
8r	8ggL 8ff 8b/	.
8aa-X>\	8ryy	.
8ryy	8gg 8ff 8b/	.
8aa->\	8ryy	.
8ryy	8ggJ 8ff 8b/	.
=75	=75	=75
8e 8c\	8eeL 8cc/	.
8r	8eeeJ 8ccc/	.
8ccc> 8gg>\	8ryy	.
8ryy	8gg 8ee/	.
8ee> 8cc>\	8ryy	.
8ryy	8cc 8g/	.
=76	=76	=76
4CC/	8r	.
.	8eL 8c/	.
4c 4E\	8cc 8g/	.
.	8e 8c/	.
4G 4C\	8cc 8g/	.
.	8eJ 8c/	.
=77	=77	=77
8A-X 8C 8FF\	8fL 8c/	.
8r	8ccJ 8a-X/	.
8cc> 8a-y>\	8ryy	.
8ryy	8aa-X 8ff/	.
4aa-y> 4ff>\	4ryy	.
=78	=78	=78
4AA-X\	12aa-XL 12ff\	.
.	12bb-X\	.
.	12aa-\J	.
4d-X 4F\	8ffL 8dd-X\	.
.	8dd- 8a-X\	.
4c 4G-X\	8ee-X 8a-\	.
.	8a-J 8e-X\	.
=79	=79	=79
4D-X\	8dd-XL 8f\	.
.	8a-X 8e-X\	.
4F\	8f 8d-X\	.
.	8a- 8e-\	.
4G-X 4AA-X\	8f 8d-\	.
.	8e-J 8A-X\	.
!!LO:PB:g=original
=80	=80	=80
4AA-X 4DD-X\	8d-X<L 8F</	.
.	8A-X</J	.
*clefG2	*	*
4dd-X 4f\	4.a-X 4.d-\	.
4r	.	.
.	8A-X\	.
*clefF4	*	*
=81	=81	=81
8DD-X\	8r<	.
8ryy	8A-X< 8C</	.
8e-X 8An 8G-X\	8ryy	.
8ryy	8A-X< 8C</	.
8e- 8B-- 8G-\	8ryy	.
8ryy	8A-< 8C</	.
=82	=82	=82
4AA-X 4DD-X\	8d-X<L 8F</	.
.	8A-X</J	.
*clefG2	*	*
4dd-X 4f\	4.a-X 4.d-X\	.
4r	.	.
.	8A-X\	.
*clefF4	*	*
=83	=83	=83
8DD-X\	8r<	.
!	!LO:TX:t=diminuendo._:problem=dynamics with extention lines	!LO:HP:t=diminuendo.:dur=5qe:ext=ud
8ryy	8A-X< 8C</	>
8e-X 8B-- 8G-X\	8ryy	.
8ryy	8A-< 8C</	.
8e- 8B-- 8G-\	8ryy	.
8ryy	8A-< 8C</	.
=84	=84	=84
4AA-X 4DD-X\	8d-X<L 8F</	.
.	8A-X</J	.
!	!LO:TX:a:i:t=ms	!
4a-X> 4d-X>/	4.f< 4.d-</	.
4r>	.	.
.	8A-</	]]
!!LO:PB:g=original
=85	=85	=85
4AA-X 4DD-X\	8d-X<L 8F</	.
.	8A-X</J	.
2a-X> 2d-X>/	4.f< 4.d-</	.
.	8A-</	.
=86	=86	=86
4AA-X 4DD-X\	8d-X<L 8F</	.
.	8A-X</J	.
4a-X> 4d-X>/	8f<L 8d-</	.
!	!LO:TX:b:i:t=come niente.	!
.	8e-X< 8A-</	.
4r>	8d-< 8F</	.
.	8e-<J 8A-</	.
=87	=87	=87
!LO:TX:a:i:t=ms.	!	!
8d-XL 8F\	2.rb	.
8A-X\	.	.
8F 8D-X\	.	pp
8A- 8E-X\	.	.
8F 8D-\	.	.
8AA-X\J	.	.
=88||	=88||	=88||
*k[b-]	*k[b-]	*
*F:	*F:	*
4AAA/	4c/	.
.	.	p
4A 4F\	8d/L	.
.	8e/	.
4A 4C\	8f/	.
.	8g/J	.
=89	=89	=89
4A 4FF\	4a 4f/	.
4A 4F\	2a 2f/	.
4C\	.	.
=90	=90	=90
4A 4FF\	4a 4e/	.
4A 4F\	2a 2e/	.
4C\	.	.
=91	=91	=91
4A 4FF#X\	4a 4e-X/	.
4A 4E-X\	2a 2e-/	.
4C\	.	.
!!LO:LB:g=original
=92	=92	=92
4BB- 4BBB-\	4a 4d\	.
8G\L	8g\L	.
8fJ 8d\	8ffJ 8dd\	.
[4f [4d\	[4ff [4dd\	.
=93	=93	=93
4f] 4d\]	4ff] 4dd\]	.
4e 4c\	4ee 4cc\	.
4d 4B-\	4dd 4b-\	.
=94	=94	=94
4CC/	16cc#XLL 16a\	.
.	16ddJJ 16b-\	.
.	8r	.
4c 4E\	8b-L 8e\	.
.	8B-\	.
4C\	8b- 8e\	.
.	8B-\J	.
=95	=95	=95
4FF\	8fL 8A/	.
.	8c 8F/	.
4A\	8f 8A/	.
.	8gJ 8c/	.
4C\	4a 4f/	.
=96	=96	=96
(4FF\	4c/	.
4A 4F\	8d/L	.
.	8e/	.
4A 4C\)	8f/	.
.	8g/J	.
=97	=97	=97
(4A 4FF\	4a 4f/	.
4A 4F\	2a 2f/	.
4A 4C\)	.	.
=98	=98	=98
(4A 4FF\	4a 4e/	.
4A 4F\	2a 2e/	.
4C\)	.	.
!!LO:LB:g=original
=99	=99	=99
4A 4FF#X\	4a 4d#X/	.
4A 4D#X\	2a 2d#/	.
4BBn\	.	.
=100	=100	=100
4E 4EE\	4a 4e/	.
8c#XL 8A\	8cc#XL 8a\	.
8aJ 8f#X\	8aaJ 8ff#X\	.
[4a [4f#\	[4aa [4ff#\	.
=101	=101	=101
4a] 4f#\]	4aa] 4ff#\]	.
4g#X 4e\	4gg#X 4ee\	.
4f#y 4d\	4ff#X 4dd\	.
=102	=102	=102
4EE\	16ee#XLL 16cc#X\	.
.	16ff#XJJ 16dd\	.
.	8r	.
4d 4G#X\	8ddL 8f#X\	.
.	8g#X 8d\	.
4E\	8dd 8f#\	.
.	8g#J 8d\	.
=103	=103	=103
4AA\	4a 4c#X\	.
4A 4E\	4r	.
4r	4a\	.
=104||	=104||	=104||
4BBB-\	8aL 8d'\	.
.	8g 8B-'\	.
4G\	8g 8B-'\	.
.	8a 8d'\	.
4D\	8b- 8g'\	.
.	8ddJ 8a'\	.
!!LO:LB:g=original
=105	=105	=105
4g 4B-\	8ddL 8b-'\	.
.	8gg 8b-'\	.
4r	8gg 8b-'\	.
.	8dd 8b-'\	.
4r	8b- 8g'\	.
.	8gJ 8d'\	.
=106	=106	=106
4CC\	8gL 8c\	.
.	8f 8A\	.
4F\	8f 8A\	.
.	8g 8c\	.
4C\	8a 8f\	.
.	8ccJ 8g\	.
=107	=107	=107
4A\	8ccL 8a\	.
.	8ff 8a\	.
4r	8ff 8a\	.
.	8cc 8a\	.
4r	8a 8f\	.
.	8fJ 8c\	.
=108	=108	=108
4CC\	8eL 8c\	.
.	8eeJ 8cc\	.
4B-\	8eeL 8cc\	.
.	8eJ 8c\	.
4E\	8eL 8c\	.
.	8ddJ 8bn\	.
=109	=109	=109
4CC\	8ddL 8b-\	.
.	8eJ 8c\	.
4B-\	8eL 8c\	.
.	8dd-XJ 8b-X\	.
4E\	8dd-L 8b-\	.
.	8eJ 8c\	.
=110	=110	=110
4FF\	8fL 8c\	.
.	8dd-XJ 8b-X\	.
4F\	8dd-L 8b-\	.
.	8fJ 8c\	.
4C\	8fL 8c\	.
.	8ccJ 8a\	.
=111	=111	=111
4A\	8fL 8c\	.
.	8cc 8a\	.
4r	8f 8c\	.
.	8bn 8a\	.
4r	8f 8c\	.
.	8ccJ 8a\	.
!!LO:LB:g=original
=112	=112	=112
4BBB-\	8aL 8d\	.
.	8g 8B-\	.
4G\	8g 8B-\	.
.	8a 8d\	.
4D\	8b- 8g\	.
.	8ddJ 8a\	.
=113	=113	=113
2g 2B-\	8ddL 8b-\	.
.	8bb- 8gg\	.
.	8gg 8dd\	.
.	8dd 8b-\	.
4E\	8b- 8g\	.
.	8gJ 8d\	.
=114	=114	=114
4AAA\	8gL 8c\	.
.	8f 8A\	.
4F\	8f 8A\	.
.	8g 8c\	.
4C\	8a 8f\	.
.	8ccJ 8g\	.
=115	=115	=115
!LO:N:vis=4	!	!
2f 2A\	8ccL 8a\	.
.	8aa 8ff\	.
.	8ff 8cc\	.
.	8cc 8a\	.
4D\	8a 8f\	.
.	8fJ 8c\	.
=116	=116	=116
4GGG\	8eL 8B-\	.
.	8eeJ 8b-\	.
4B-\	8eeL 8b-\	.
.	8eJ 8B-\	.
4E\	8eL 8B-\	.
.	8ee-XJ 8b-\	.
=117	=117	=117
4GG\	8ee-L 8b-\	.
.	8e-y 8B-\	.
4B-\	8e- 8B-\	.
.	8dd 8b-\	.
4E\	8dd 8b-\	.
.	8dJ 8B-\	.
=118	=118	=118
4CC\	8eL 8B-\	.
.	8dd-XJ 8b-\	.
4ryy	8eL 8B-\	.
.	8ccJ 8b-\	.
4ryy	8eL 8B-\	.
.	8bnJ 8b-y\	.
!!LO:LB:g=original
=119	=119	=119
4E 4BB-\	8eL 8B-\	.
.	8ccJ 8b-\	.
!	!LO:TX:a:i:t=ms	!
8gg> 8dd-X>/	8ryy	.
8ryy	8cc 8b- 8e 8B-\	.
!	!LO:TX:a:i:t=ms	!
8gg> 8dd->/	8ryy	.
8ryy	8cc 8b- 8e 8B-\	.
=120	=120	=120
!	!LO:TX:b:i:t=marcato	!
4C 4FF\	8fL 8A\	.
.	8a 8f\	.
8D\L	8ff 8cc\	.
8E\	8a 8f\	.
8F\	8ff 8cc\	.
8G\J	8aJ 8f\	.
=121	=121	=121
!	!LO:TX:t=P:problem=mixed beam	!
4DD\	8A-X</L	.
.	8a-X 8f\	.
2A-X\	8ff 8bn\	.
.	8a- 8f\	.
.	8ff 8b\	.
.	8a-J 8f\	.
=122	=122	=122
4C\	12ccL 12a\	.
.	12dd\	p
.	12cc\J	.
4ff> 4cc>/	8aL 8f\	.
.	8c\J	.
4gg> 4ee> 4dd-X>/	8b-L 8e\	.
.	8c\J	.
=123	=123	=123
!LO:TX:a:i:t=md	!	!
4C 4FF\	8f<L 8A</	.
.	8c< 8G</	.
!	!LO:TX:a:i:t=ms.	!
4ff> 4a>/	8A< 8F</	.
.	8c< 8G</	.
4r>	8A< 8F</	.
.	8G<J 8C</	.
=124	=124	=124
4C 4FF^^\	8r	.
.	8aL 8f\	.
8D^^\L	8ff 8cc\	.
8E^^\	8a 8f\	.
8F^^\	8ff 8cc\	.
8G^^\J	8aJ 8f\	.
!!LO:LB:g=original
=125	=125	=125
!	!LO:TX:t=P:problem=mixed beam	!
4DD\	8A-X<^^</L	.
.	8a-X 8f\	.
2A-X^^\	8ff 8bn\	.
.	8a- 8f\	.
.	8ff 8b\	.
.	8a-J 8f\	.
=126	=126	=126
4DD\	12ccL 12a\	.
!	!	!LO:DY:c
.	12dd\	p
.	12cc\J	.
!	!LO:TX:a:i:t=ms.	!
4ff> 4cc>/	8aL 8f\	.
.	8c\	.
4gg> 4ee> 4dd-X>/	8b- 8e\	.
.	8c\J	.
=127	=127	=127
4C 4FF\	8fL 8A\	.
.	8c\J	.
!	!LO:TX:a:i:t=ms	!
2ff> 2a>/	4.cc 4.f\	.
.	8c\	.
=128	=128	=128
4FF\	8ryy	.
.	8c< 8B-< 8E</	.
8ryy	8ryy	.
8g> 8d-X>\	8c< 8B-< 8E</	.
8ryy	8ryy	.
8g> 8d->\	8c< 8B-< 8E</	.
=129	=129	=129
!	!	!LO:DY:a
4C 4FF\	8fL 8A\	pp
.	8c\J	.
*clefG2	*	*
2ff 2a\	4.cc 4.f\	.
.	8c\	.
*clefF4	*	*
=130	=130	=130
4FF\	8ryy	.
.	8c< 8B-< 8E</	.
8ryy	8ryy	.
8g> 8d-X>\	8c< 8B-< 8E</	.
8ryy	8ryy	.
8g> 8d->\	8c< 8B-< 8E</	.
!!LO:PB:g=original
=131	=131	=131
4C 4FF\	8fL 8A/	.
.	8c/	.
*clefG2	*	*
2ff 2a\	8cc 8f/	.
.	8c/	.
.	8A/	.
.	8c/J	.
=132	=132	=132
2ff 2a\	8ccL 8f/	.
.	8c/	.
.	8A/	.
.	8c/	.
4ff 4a\	8cc 8f/	.
.	8c/J	.
=133	=133	=133
4ff 4a\	8ccL 8f/	.
.	8f/	.
4aa 4cc\	8ff 8a/	.
.	8a/	.
4ccc 4ff\	8aa 8cc/	.
.	8cc/J	.
=134	=134	=134
*8va	*	*
4fff 4aa\	8cccL 8ff/	.
.	8ff/	.
4aaa 4ccc\	8fff 8aa/	.
.	8aa/	.
*	*8va	*
4cccc 4fff\	8aaa 8ccc/	.
.	8ccc/J	.
*	*X8va	*
=135	=135	=135
*	*8va	*
4ffff 4aaa\	4cccc 4fff/	.
*X8va	*X8va	*
!LO:TX:a:t=loco	!	!
4r	4r	.
4r	4r	.
!LO:CL:ed	!	!
*clefF4	*	*
=136	=136	=136
*	*^	*
!	!LO:TX:t=P:problem=brak oznaczenia zmiany klucza	!	!
!	!LO:TX:a:i:t=ms.	!	!
4A 4C 4FF\	8fff/	4ff 4cc 4f\	.
.	8ryy	.	.
4r	4r	4ryy	.
4r	4r	4ryy	.
*	*v	*v	*
=137	=137	=137
8qqFF 8qqFFF/	8qqF/	.
2.FF 2.FFF;/	2.F/	.
==	==	==
*-	*-	*-
!!!system-decoration: {(s1,s2)}
!!!RDF**kern: > = above
!!!RDF**kern: < = below
!!!RDF**dynam: p ="p."
!!!RDF**dynam: f ="f."
!!!RDF**dynam: pp ="pp."
!!!ENC: Andrzej Kubiczek
!!!END: 2021-05-22
!!!ENC: Mateusz Solarz
!!!END: 2021-05-05
